!!!OTL: Kyrie eleison
**kern
*staff1
=1-
*clefF4
*k[b-]
1F
2C/
2GG/
2.AA/
4BB-/
1C
1FF;
=2
1F
2G\
2C/
2.F\
4E\
1D
1C;
=3
!!linebreak:original
1F
2C/
2GG/
2.AA/
4BB-/
1C
1FF;
=4
1F
2G\
2C/
2.F\
4E\
1D
1C;
=5
!!linebreak:original
1F
2C/
2GG/
2.AA/
4BB-/
1C
1FF;
=6
1F
1F
1F
1F
=7
!!linebreak:original
2C/
2.D\
4C/
1BB-
1AA;
=8
2.C/
4C/
2BB-/
2GG/
2.AA/
4BB-/
1C
0FF
==
*-
!!title: @{OTL}, @{GTL}, ed. @{ENC}
!!!pag:
!!!GTL: Hymnbook D
!!!EFL: 
!!!YEM: Creative Commons CC/BY/NC/SA 4.0
!!!ENC: Marcin Konik
!!!END: 2015-0m-dd
!!!EED: Marcin Konik
!!!EEV: 
!!!ONB: Encoded in vim by Marcin Konik
!!!CharacterEncoding: utf-8
!!!RDF**kern: l=long note in original notation
!!!RDF**kern: i=editorial accidental
!!muse2ps: z14jc180F
!!!COM: Anonim
!!!CDT: [?]
!!!TXO: Polish
!!!ODT: 
!!!GTL: Hymnbook D
!!!ARL: Opactwo św. Wojciecha, Staniątki 
!!!voices:	1
